Adwaita++/actions/22/office-chart-polar-stacked.svg

<svg height="22" viewBox="0 0 22 22" width="22" xmlns="http://www.w3.org/2000/svg">
  <path d="m8 2a6.0000019 6.0000148 0 0 0 -.8671875.0703125 6.0000019 6.0000148 0 0 0 -.5585937.109375 6 6 0 0 0 -.0996094.0214844c-.0256493.0067069-.050857.0140557-.0761719.0214843a6.0000019 6.0000148 0 0 0 -.3964844.1269532 6 6 0 0 0 -.1445312.0488281c-.0336533.012854-.0666583.0268271-.0996094.0410156a6.0000019 6.0000148 0 0 0 -.28125.125 6 6 0 0 0 -.1816406.0820313c-.0240014.0121367-.0470506.0257694-.0703125.0390625a6.0000019 6.0000148 0 0 0 -.2890625.1640625 6 6 0 0 0 -.1777344.1015625 6 6 0 0 0 -.0761719.0546875 6.0000019 6.0000148 0 0 0 -.2421875.171875 6 6 0 0 0 -.1699219.1230468 6 6 0 0 0 -.0625.0546876 6.0000019 6.0000148 0 0 0 -.2617187.2324218c-.0512325.0450363-.1036613.0887533-.1523437.1367188a6 6 0 0 0 -.0332032.0351562 6.0000019 6.0000148 0 0 0 -.2832031.3105469c-.0358175.0397221-.0734344.0778311-.1074219.1191406a6 6 0 0 0 -.0117187.015625 6.0000019 6.0000148 0 0 0 -1.3574219 3.7949219 6.0000019 6.0000148 0 0 0 6 6 6.0000019 6.0000148 0 0 0 6-6 6.0000019 6.0000148 0 0 0 -.441406-2.2421875 6.0000019 6.0000148 0 0 0 -5.558594-3.7578125zm0 1a5 5 0 0 1 2.646484.765625l-1.5878902 2.5410156c.5194597.32486.8702881.8812738.9238281 1.5273438l2.9980471-.25a5 5 0 0 1 .019531.4160156 5 5 0 0 1 -5 5v-1.5-1.5c-.554 0-1.0545156-.2224844-1.4160156-.5839844l-2.1171875 2.1171874a5 5 0 0 1 -1.4667969-3.533203 5 5 0 0 1 1.0996094-3.1210938l2.34375 1.875c.36593-.4568099.9231606-.7539062 1.5566406-.7539062v-.5-2zm-3.4355469 8.625c.1812526.171753.3725668.333397.578125.476562a5 5 0 0 1 -.578125-.476562zm.734375.576172c.2137065.137308.4373125.261264.671875.365234a5 5 0 0 1 -.671875-.365234zm.8300781.43164c.264816.106541.5389056.193497.8242188.253907a5 5 0 0 1 -.8242188-.253907z" fill="#444" transform="translate(3 3)"/>
</svg>

<svg xmlns="http://www.w3.org/2000/svg" width="22" height="22" viewBox="0 0 22 22">
 <defs>
  <style id="current-color-scheme" type="text/css">
   .ColorScheme-Text { color:#444444; } .ColorScheme-Highlight { color:#4285f4; }
  </style>
 </defs>
 <path style="fill:currentColor" class="ColorScheme-Text" d="M 8 2 A 6.0000019 6.0000148 0 0 0 7.1328125 2.0703125 A 6.0000019 6.0000148 0 0 0 6.5742188 2.1796875 A 6 6 0 0 0 6.4746094 2.2011719 C 6.4489601 2.2078788 6.4237524 2.2152276 6.3984375 2.2226562 A 6.0000019 6.0000148 0 0 0 6.0019531 2.3496094 A 6 6 0 0 0 5.8574219 2.3984375 C 5.8237686 2.4112915 5.7907636 2.4252646 5.7578125 2.4394531 A 6.0000019 6.0000148 0 0 0 5.4765625 2.5644531 A 6 6 0 0 0 5.2949219 2.6464844 C 5.2709205 2.6586211 5.2478713 2.6722538 5.2246094 2.6855469 A 6.0000019 6.0000148 0 0 0 4.9355469 2.8496094 A 6 6 0 0 0 4.7578125 2.9511719 A 6 6 0 0 0 4.6816406 3.0058594 A 6.0000019 6.0000148 0 0 0 4.4394531 3.1777344 A 6 6 0 0 0 4.2695312 3.3007812 A 6 6 0 0 0 4.2070312 3.3554688 A 6.0000019 6.0000148 0 0 0 3.9453125 3.5878906 C 3.89408 3.6329269 3.8416512 3.6766439 3.7929688 3.7246094 A 6 6 0 0 0 3.7597656 3.7597656 A 6.0000019 6.0000148 0 0 0 3.4765625 4.0703125 C 3.440745 4.1100346 3.4031281 4.1481436 3.3691406 4.1894531 A 6 6 0 0 0 3.3574219 4.2050781 A 6.0000019 6.0000148 0 0 0 2 8 A 6.0000019 6.0000148 0 0 0 8 14 A 6.0000019 6.0000148 0 0 0 14 8 A 6.0000019 6.0000148 0 0 0 13.558594 5.7578125 A 6.0000019 6.0000148 0 0 0 8 2 z M 8 3 A 5 5 0 0 1 10.646484 3.765625 L 9.0585938 6.3066406 C 9.5780535 6.6315006 9.9288819 7.1879144 9.9824219 7.8339844 L 12.980469 7.5839844 A 5 5 0 0 1 13 8 A 5 5 0 0 1 8 13 L 8 11.5 L 8 10 C 7.446 10 6.9454844 9.7775156 6.5839844 9.4160156 L 4.4667969 11.533203 A 5 5 0 0 1 3 8 A 5 5 0 0 1 4.0996094 4.8789062 L 6.4433594 6.7539062 C 6.8092894 6.2970963 7.36652 6 8 6 L 8 5.5 L 8 3.5 L 8 3 z M 4.5644531 11.625 C 4.7457057 11.796753 4.9370199 11.958397 5.1425781 12.101562 A 5 5 0 0 1 4.5644531 11.625 z M 5.2988281 12.201172 C 5.5125346 12.33848 5.7361406 12.462436 5.9707031 12.566406 A 5 5 0 0 1 5.2988281 12.201172 z M 6.1289062 12.632812 C 6.3937222 12.739353 6.6678118 12.826309 6.953125 12.886719 A 5 5 0 0 1 6.1289062 12.632812 z" transform="translate(3 3)"/>
</svg>
